polaris-icons/icons/newicons/FollowUpEmailMajor.svg

<svg width="20" height="20" viewBox="0 0 20 20" fill="none" xmlns="http://www.w3.org/2000/svg">
<path fill-rule="evenodd" clip-rule="evenodd" d="M2 7.75C2 5.67893 3.67893 4 5.75 4H14.25C16.3211 4 18 5.67893 18 7.75V8.75C18 9.16421 17.6642 9.5 17.25 9.5C16.8358 9.5 16.5 9.16421 16.5 8.75V7.75C16.5 7.31962 16.3792 6.91747 16.1696 6.57562L10.7194 10.4109C10.2879 10.7146 9.71215 10.7146 9.28064 10.4109L3.83043 6.57561C3.62084 6.91746 3.5 7.31962 3.5 7.75V12.25C3.5 13.4926 4.50736 14.5 5.75 14.5H9.75C10.1642 14.5 10.5 14.8358 10.5 15.25C10.5 15.6642 10.1642 16 9.75 16H5.75C3.67893 16 2 14.3211 2 12.25V7.75ZM5.06107 5.60743L10 9.08299L14.9389 5.60744C14.7218 5.53767 14.4903 5.5 14.25 5.5H5.75C5.5097 5.5 5.27819 5.53767 5.06107 5.60743Z" fill="black"/>
<path d="M12 14C12 13.5858 12.3358 13.25 12.75 13.25H16.5799L15.6894 12.2483C15.4143 11.9387 15.4421 11.4646 15.7517 11.1894C16.0613 10.9142 16.5354 10.9421 16.8106 11.2517L18.8106 13.5017C19.0631 13.7859 19.0631 14.2141 18.8106 14.4983L16.8106 16.7483C16.5354 17.0579 16.0613 17.0857 15.7517 16.8105C15.4421 16.5354 15.4143 16.0613 15.6894 15.7517L16.5799 14.75H12.75C12.3358 14.75 12 14.4142 12 14Z" fill="black"/>
</svg>

<svg viewBox="0 0 20 20" fill="none" xmlns="http://www.w3.org/2000/svg"><path fill-rule="evenodd" clip-rule="evenodd" d="M2 7.75a3.75 3.75 0 0 1 3.75-3.75h8.5a3.75 3.75 0 0 1 3.75 3.75v1a.75.75 0 0 1-1.5 0v-1c0-.43-.12-.833-.33-1.174l-5.45 3.835a1.25 1.25 0 0 1-1.44 0l-5.45-3.835a2.24 2.24 0 0 0-.33 1.174v4.5a2.25 2.25 0 0 0 2.25 2.25h4a.75.75 0 0 1 0 1.5h-4a3.75 3.75 0 0 1-3.75-3.75v-4.5Zm3.061-2.143 4.939 3.476 4.939-3.476a2.248 2.248 0 0 0-.689-.107h-8.5c-.24 0-.472.038-.689.107Z" fill="#000"/><path d="M12 14a.75.75 0 0 1 .75-.75h3.83l-.89-1.002a.75.75 0 0 1 1.12-.996l2 2.25a.75.75 0 0 1 0 .996l-2 2.25a.75.75 0 0 1-1.12-.996l.89-1.002h-3.83a.75.75 0 0 1-.75-.75Z" fill="#000"/></svg>
